app/assets/v2/images/home/bg-video-preview.svg

<svg fill="none" height="353" viewBox="0 0 499 353" width="499" xmlns="http://www.w3.org/2000/svg"><path clip-rule="evenodd" d="m26.9222 172.518c-3.6412-11.096 2.4501-23.16 13.7561-26.87l358.6027-117.6806c11.306-3.7102 23.361 2.3989 27.002 13.4947l45.646 139.0949c3.641 11.095-2.45 23.159-13.756 26.87l-358.6026 117.68c-11.306 3.71-23.3611-2.399-27.0024-13.495zm8.744-42.143c-19.6394 6.445-30.45972 27.523-24.0171 47.155l45.6458 139.094c6.4426 19.633 27.6482 30.201 47.2871 23.756l358.603-117.68c19.639-6.445 30.459-27.523 24.017-47.155l-45.646-139.095c-6.443-19.6322-27.648-30.20065-47.288-23.7557zm259.7338 35.306c3.11-3.661 1.255-9.315-3.419-10.42l-79.55-18.824c-4.889-1.156-9.156 3.489-7.59 8.262l26.621 81.121c1.566 4.774 7.757 5.987 11.009 2.158z" fill="#000" fill-opacity=".05" fill-rule="evenodd"/></svg>

<svg width="499" height="353" viewBox="0 0 499 353" fill="none" xmlns="http://www.w3.org/2000/svg"><path fill-rule="evenodd" clip-rule="evenodd" d="M26.9222 172.518C23.281 161.422 29.3723 149.358 40.6783 145.648L399.281 27.9674C410.587 24.2572 422.642 30.3663 426.283 41.4621L471.929 180.557C475.57 191.652 469.479 203.716 458.173 207.427L99.5704 325.107C88.2644 328.817 76.2093 322.708 72.568 311.612L26.9222 172.518ZM35.6662 130.375C16.0268 136.82 5.20648 157.898 11.6491 177.53L57.2949 316.624C63.7375 336.257 84.9431 346.825 104.582 340.38L463.185 222.7C482.824 216.255 493.644 195.177 487.202 175.545L441.556 36.45C435.113 16.8178 413.908 6.24935 394.268 12.6943L35.6662 130.375ZM295.4 165.681C298.51 162.02 296.655 156.366 291.981 155.261L212.431 136.437C207.542 135.281 203.275 139.926 204.841 144.699L231.462 225.82C233.028 230.594 239.219 231.807 242.471 227.978L295.4 165.681Z" fill="black" fill-opacity="0.05"/></svg>
